X: 6
T: Comb Your Hair And Curl It
R: slip jig
M: 9/8
L: 1/8
K: Edor
|: B2E E2F G2A | Bcd edc d2c | | g2e e2d efg | f2d d2c def | | g2e e2d e2c | d2B AGF G2E | | g2e e2d efg | f2d d2c def | | g2e e2d e2c | d2B AGF GFE |


Tune 1030	Setting 14256

